silx/resources/gui/icons/item-ndim.svg

<?xml version="1.0" encoding="UTF-8"?>
<svg xmlns="http://www.w3.org/2000/svg" xmlns:xlink="http://www.w3.org/1999/xlink" width="32" height="32" viewBox="0 0 32 32" version="1.1">
<g id="surface1">
<path style=" stroke:none;fill-rule:evenodd;fill:rgb(0%,0%,100%);fill-opacity:1;" d="M 16.03125 9.71875 L 22.871094 12 L 29.664062 9.734375 L 22.824219 7.453125 Z M 16.03125 9.71875 "/>
<path style=" stroke:none;fill-rule:evenodd;fill:rgb(0%,39.215686%,100%);fill-opacity:1;" d="M 22.871094 12 L 22.871094 20.109375 L 29.664062 17.84375 L 29.664062 9.734375 Z M 22.871094 12 "/>
<path style=" stroke:none;fill-rule:evenodd;fill:rgb(0%,20.392157%,100%);fill-opacity:1;" d="M 16.03125 9.71875 L 22.871094 12 L 22.871094 20.109375 L 16.03125 17.828125 Z M 16.03125 9.71875 "/>
<path style=" stroke:none;fill-rule:evenodd;fill:rgb(0%,0%,100%);fill-opacity:1;" d="M 2.335938 9.71875 L 9.175781 12 L 15.96875 9.734375 L 9.128906 7.453125 Z M 2.335938 9.71875 "/>
<path style=" stroke:none;fill-rule:evenodd;fill:rgb(0%,39.215686%,100%);fill-opacity:1;" d="M 9.175781 12 L 9.175781 20.109375 L 15.96875 17.84375 L 15.96875 9.734375 Z M 9.175781 12 "/>
<path style=" stroke:none;fill-rule:evenodd;fill:rgb(0%,20.392157%,100%);fill-opacity:1;" d="M 2.335938 9.71875 L 9.175781 12 L 9.175781 20.109375 L 2.335938 17.828125 Z M 2.335938 9.71875 "/>
<path style=" stroke:none;fill-rule:evenodd;fill:rgb(0%,0%,100%);fill-opacity:1;" d="M 9.140625 20.042969 L 15.980469 22.320312 L 22.773438 20.058594 L 15.933594 17.777344 Z M 9.140625 20.042969 "/>
<path style=" stroke:none;fill-rule:evenodd;fill:rgb(0%,39.215686%,100%);fill-opacity:1;" d="M 15.980469 22.320312 L 15.980469 30.433594 L 22.769531 28.167969 L 22.769531 20.058594 Z M 15.980469 22.320312 "/>
<path style=" stroke:none;fill-rule:evenodd;fill:rgb(0%,20.392157%,100%);fill-opacity:1;" d="M 9.140625 20.042969 L 15.980469 22.320312 L 15.980469 30.433594 L 9.140625 28.152344 Z M 9.140625 20.042969 "/>
<path style=" stroke:none;fill-rule:evenodd;fill:rgb(0%,0%,100%);fill-opacity:1;" d="M 9.140625 11.9375 L 15.980469 14.214844 L 22.773438 11.953125 L 15.933594 9.671875 Z M 9.140625 11.9375 "/>
<path style=" stroke:none;fill-rule:evenodd;fill:rgb(0%,39.215686%,100%);fill-opacity:1;" d="M 15.980469 14.214844 L 15.980469 22.328125 L 22.769531 20.0625 L 22.769531 11.953125 Z M 15.980469 14.214844 "/>
<path style=" stroke:none;fill-rule:evenodd;fill:rgb(0%,20.392157%,100%);fill-opacity:1;" d="M 9.140625 11.9375 L 15.980469 14.214844 L 15.980469 22.328125 L 9.140625 20.046875 Z M 9.140625 11.9375 "/>
<path style=" stroke:none;fill-rule:evenodd;fill:rgb(0%,0%,100%);fill-opacity:1;" d="M 9.140625 3.832031 L 15.980469 6.113281 L 22.773438 3.847656 L 15.933594 1.566406 Z M 9.140625 3.832031 "/>
<path style=" stroke:none;fill-rule:evenodd;fill:rgb(0%,39.215686%,100%);fill-opacity:1;" d="M 15.980469 6.113281 L 15.980469 14.222656 L 22.769531 11.960938 L 22.769531 3.847656 Z M 15.980469 6.113281 "/>
<path style=" stroke:none;fill-rule:evenodd;fill:rgb(0%,20.392157%,100%);fill-opacity:1;" d="M 9.140625 3.832031 L 15.980469 6.113281 L 15.980469 14.222656 L 9.140625 11.941406 Z M 9.140625 3.832031 "/>
<path style=" stroke:none;fill-rule:evenodd;fill:rgb(0%,0%,100%);fill-opacity:1;" d="M 16.03125 14.242188 L 22.871094 16.523438 L 29.664062 14.257812 L 22.824219 11.980469 Z M 16.03125 14.242188 "/>
<path style=" stroke:none;fill-rule:evenodd;fill:rgb(0%,39.215686%,100%);fill-opacity:1;" d="M 22.871094 16.523438 L 22.871094 24.632812 L 29.664062 22.371094 L 29.664062 14.261719 Z M 22.871094 16.523438 "/>
<path style=" stroke:none;fill-rule:evenodd;fill:rgb(0%,20.392157%,100%);fill-opacity:1;" d="M 16.03125 14.242188 L 22.871094 16.523438 L 22.871094 24.632812 L 16.03125 22.355469 Z M 16.03125 14.242188 "/>
<path style=" stroke:none;fill-rule:evenodd;fill:rgb(0%,0%,100%);fill-opacity:1;" d="M 2.335938 14.242188 L 9.175781 16.523438 L 15.96875 14.257812 L 9.128906 11.980469 Z M 2.335938 14.242188 "/>
<path style=" stroke:none;fill-rule:evenodd;fill:rgb(0%,39.215686%,100%);fill-opacity:1;" d="M 9.175781 16.523438 L 9.175781 24.632812 L 15.96875 22.371094 L 15.96875 14.261719 Z M 9.175781 16.523438 "/>
<path style=" stroke:none;fill-rule:evenodd;fill:rgb(0%,20.392157%,100%);fill-opacity:1;" d="M 2.335938 14.242188 L 9.175781 16.523438 L 9.175781 24.632812 L 2.335938 22.355469 Z M 2.335938 14.242188 "/>
</g>
</svg>

<?xml version="1.0" encoding="UTF-8"?>
<svg version="1.1" viewBox="0 0 32 32" xmlns="http://www.w3.org/2000/svg">
 <g fill-rule="evenodd">
  <path d="m16.031 9.7188l6.8398 2.2812 6.793-2.2656-6.8398-2.2812z" fill="#00f"/>
  <path d="m22.871 12v8.1094l6.793-2.2656v-8.1094z" fill="#0063ff"/>
  <path d="m16.031 9.7188l6.8398 2.2812v8.1094l-6.8398-2.2812z" fill="#0034ff"/>
  <path d="m2.3359 9.7188l6.8398 2.2812 6.793-2.2656-6.8398-2.2812z" fill="#00f"/>
  <path d="m9.1758 12v8.1094l6.793-2.2656v-8.1094z" fill="#0063ff"/>
  <path d="m2.3359 9.7188l6.8398 2.2812v8.1094l-6.8398-2.2812z" fill="#0034ff"/>
  <path d="m9.1406 20.043l6.8398 2.2773 6.793-2.2617-6.8398-2.2812z" fill="#00f"/>
  <path d="m15.98 22.32v8.1133l6.7891-2.2656v-8.1094z" fill="#0063ff"/>
  <path d="m9.1406 20.043l6.8398 2.2773v8.1133l-6.8398-2.2812z" fill="#0034ff"/>
  <path d="m9.1406 11.938l6.8398 2.2773 6.793-2.2617-6.8398-2.2812z" fill="#00f"/>
  <path d="m15.98 14.215v8.1133l6.7891-2.2656v-8.1094z" fill="#0063ff"/>
  <path d="m9.1406 11.938l6.8398 2.2773v8.1133l-6.8398-2.2812z" fill="#0034ff"/>
  <path d="m9.1406 3.832l6.8398 2.2812 6.793-2.2656-6.8398-2.2812z" fill="#00f"/>
  <path d="m15.98 6.1133v8.1094l6.7891-2.2617v-8.1133z" fill="#0063ff"/>
  <path d="m9.1406 3.832l6.8398 2.2812v8.1094l-6.8398-2.2812z" fill="#0034ff"/>
  <path d="m16.031 14.242l6.8398 2.2812 6.793-2.2656-6.8398-2.2773z" fill="#00f"/>
  <path d="m22.871 16.523v8.1094l6.793-2.2617v-8.1094z" fill="#0063ff"/>
  <path d="m16.031 14.242l6.8398 2.2812v8.1094l-6.8398-2.2773z" fill="#0034ff"/>
  <path d="m2.3359 14.242l6.8398 2.2812 6.793-2.2656-6.8398-2.2773z" fill="#00f"/>
  <path d="m9.1758 16.523v8.1094l6.793-2.2617v-8.1094z" fill="#0063ff"/>
  <path d="m2.3359 14.242l6.8398 2.2812v8.1094l-6.8398-2.2773z" fill="#0034ff"/>
 </g>
</svg>
